X:211
T:Polska efter J.J. Bruun
R:sl\"angpolska
A:Sk{\aa}ne
B:SvL Sk 549, efter J.J. Bruun, som hade den efter Per Valdemar Lethin, Lund.
Z:id:hn-sp-211
M:3/4
L:1/16
K:Am
A4 A2c2 B2A2 | B4 B2d2 c2B2 | A4 A2c2 B2A2 | ^G4 A8 :|
|: e4 c2e2 d2c2 | d4 B2d2 c2B2 | e4 c2e2 d2c2 | d4 B2d2 c2B2 |
A4 A2c2 B2A2 | B4 B2d2 c2B2 | A4 A2c2 B2A2 | ^G4 A8 :|

